assets/images/vector/icons/circle_info_icon.svg

<svg fill="none" height="59" viewBox="0 0 59 59" width="59" xmlns="http://www.w3.org/2000/svg"><path d="m29.1667 53.3333c13.3468 0 24.1666-10.8198 24.1666-24.1666 0-13.3469-10.8198-24.1667-24.1666-24.1667-13.3469 0-24.1667 10.8198-24.1667 24.1667 0 13.3468 10.8198 24.1666 24.1667 24.1666z" stroke="#111" stroke-linecap="round" stroke-linejoin="round" stroke-width="10"/><path d="m29.166 41.8967v-15.23" stroke="#111" stroke-linecap="round" stroke-linejoin="round" stroke-width="10"/><path d="m29.1673 21.6667c-1.84 0-3.3333-1.4967-3.3333-3.3334 0-1.8366 1.4933-3.3333 3.3333-3.3333s3.3334 1.4967 3.3334 3.3333c0 1.8367-1.4934 3.3334-3.3334 3.3334z" fill="#111"/></svg>

<svg width="59" height="59" viewBox="0 0 59 59" fill="none" xmlns="http://www.w3.org/2000/svg">
<path d="M29.1667 53.3333C42.5135 53.3333 53.3333 42.5135 53.3333 29.1667C53.3333 15.8198 42.5135 5 29.1667 5C15.8198 5 5 15.8198 5 29.1667C5 42.5135 15.8198 53.3333 29.1667 53.3333Z" stroke="#111111" stroke-width="10" stroke-linecap="round" stroke-linejoin="round"/>
<path d="M29.166 41.8967V26.6667" stroke="#111111" stroke-width="10" stroke-linecap="round" stroke-linejoin="round"/>
<path d="M29.1673 21.6667C27.3273 21.6667 25.834 20.17 25.834 18.3333C25.834 16.4967 27.3273 15 29.1673 15C31.0073 15 32.5007 16.4967 32.5007 18.3333C32.5007 20.17 31.0073 21.6667 29.1673 21.6667Z" fill="#111111"/>
</svg>
